dhis-2/dhis-support/dhis-support-system/src/main/resources/SVGs/male_and_female_negative.svg

<?xml version="1.0" encoding="UTF-8" standalone="no"?>
<!-- Created with Inkscape (http://www.inkscape.org/) -->
<svg id="svg8" xmlns:rdf="http://www.w3.org/1999/02/22-rdf-syntax-ns#" xmlns="http://www.w3.org/2000/svg" xmlns:osb="http://www.openswatchbook.org/uri/2009/osb" height="48" width="48" version="1.1" xmlns:cc="http://creativecommons.org/ns#" viewBox="0 0 12.7 12.7" xmlns:dc="http://purl.org/dc/elements/1.1/">
 <title id="title4753">UIO-icon</title>
 <metadata id="metadata5">
  <rdf:RDF>
   <cc:Work rdf:about="">
    <dc:format>image/svg+xml</dc:format>
    <dc:type rdf:resource="http://purl.org/dc/dcmitype/StillImage"/>
    <dc:title>UIO-icon</dc:title>
    <dc:creator>
     <cc:Agent>
      <dc:title>Joaquín Urbano</dc:title>
     </cc:Agent>
    </dc:creator>
    <dc:rights>
     <cc:Agent>
      <dc:title>GPL</dc:title>
     </cc:Agent>
    </dc:rights>
   </cc:Work>
  </rdf:RDF>
 </metadata>
 <g id="layer1" transform="translate(0,-284.3)">
  <path id="rect5009" d="m0 0v48h48v-48zm13.689 8.0977c1.933-1e-7 3.5 1.567 3.5 3.5s-1.567 3.5-3.5 3.5-3.5-1.567-3.5-3.5 1.567-3.5 3.5-3.5zm21.037 0c1.933 0 3.5 1.567 3.5 3.5 0.000001 1.933-1.567 3.5-3.5 3.5s-3.5-1.567-3.5-3.5 1.567-3.5 3.5-3.5zm-21.384 7.8613h3.875v0.0078c0.57534 0.0075 1.124 0.32655 1.3945 0.88086l3.8691 7.9258c0.38289 0.78459 0.05998 1.7245-0.72461 2.1074-0.78459 0.38287-1.7245 0.05998-2.1074-0.72461l-2.4316-4.9824v17.188c0 0.87303-0.70314 1.5762-1.5762 1.5762-0.87303 0-1.5762-0.70314-1.5762-1.5762v-9.269h-0.75977v9.2676c0 0.87303-0.70314 1.5762-1.5762 1.5762-0.87303 0-1.5742-0.70314-1.5742-1.5762v-17.176l-2.4265 4.97c-0.3829 0.785-1.3209 1.108-2.1055 0.725-0.7845-0.383-1.1094-1.323-0.7265-2.108l3.8691-7.925c0.26937-0.552 0.81597-0.86757 1.3887-0.87891v-0.0078zm21.037 0h3.875v0.0078c0.57534 0.0075 1.124 0.32655 1.3945 0.88086l3.8691 7.9258c0.38289 0.78459 0.05998 1.7245-0.72461 2.1074-0.78459 0.38287-1.7245 0.05998-2.1074-0.72461l-2.4316-4.9824c0 3.7635 0.39047 6.2572 2.2207 10.076h-2.2207v7.1113c0 0.87303-0.70314 1.5762-1.5762 1.5762-0.87303 0-1.5762-0.70314-1.5762-1.5762v-7.112h-0.75976v7.1113c0 0.87303-0.70314 1.5762-1.5762 1.5762-0.87303 0-1.5742-0.70314-1.5742-1.5762v-7.111h-2.2168c2.0451-3.9599 2.276-6.6783 2.2168-10.064l-2.4258 4.9707c-0.38289 0.78471-1.3209 1.1075-2.1055 0.72461-0.78459-0.38287-1.1095-1.3229-0.72656-2.1074l3.8691-7.9258c0.26937-0.552 0.81597-0.86757 1.3887-0.87891v-0.0078z" fill-rule="evenodd" transform="matrix(.26458 0 0 .26458 0 284.3)" fill="#333"/>
 </g>
</svg>

<svg width="48" height="48" viewBox="0 0 48 48" fill="none" xmlns="http://www.w3.org/2000/svg">
<path fill-rule="evenodd" clip-rule="evenodd" d="M0 0V47.9994H47.9994V0H0ZM13.6888 8.0976C15.6218 8.0976 17.1888 9.66458 17.1888 11.5976C17.1888 13.5305 15.6218 15.0975 13.6888 15.0975C11.7559 15.0975 10.1889 13.5305 10.1889 11.5976C10.1889 9.66458 11.7559 8.0976 13.6888 8.0976ZM34.7256 8.0976C36.6585 8.0976 38.2255 9.66458 38.2255 11.5976C38.2255 13.5305 36.6585 15.0975 34.7256 15.0975C32.7926 15.0975 31.2256 13.5305 31.2256 11.5976C31.2256 9.66458 32.7926 8.0976 34.7256 8.0976ZM13.3418 15.9588H17.2168V15.9666C17.7921 15.9741 18.3408 16.2931 18.6113 16.8474L22.4803 24.7732C22.8632 25.5577 22.5403 26.4976 21.7557 26.8805C20.9711 27.2634 20.0312 26.9405 19.6483 26.1559L17.2168 21.1736V38.3614C17.2168 39.2344 16.5136 39.9375 15.6406 39.9375C14.7676 39.9375 14.0644 39.2344 14.0644 38.3614V29.0925H13.3047V38.36C13.3047 39.233 12.6015 39.9361 11.7285 39.9361C10.8555 39.9361 10.1543 39.233 10.1543 38.36V21.1842L7.72782 26.1541C7.34493 26.9391 6.40694 27.2621 5.62235 26.8791C4.83786 26.4961 4.51296 25.5561 4.89586 24.7711L8.76491 16.8462C9.03428 16.2942 9.58087 15.9787 10.1536 15.9673V15.9595L13.3418 15.9588ZM34.3786 15.9588H38.2535V15.9666C38.8289 15.9741 39.3775 16.2931 39.648 16.8474L43.5171 24.7732C43.8999 25.5577 43.577 26.4976 42.7925 26.8805C42.0079 27.2634 41.068 26.9405 40.6851 26.1559L38.2535 21.1736C38.2535 24.937 38.644 27.4307 40.4742 31.2495H38.2535V38.3607C38.2535 39.2337 37.5504 39.9369 36.6773 39.9369C35.8043 39.9369 35.1012 39.2337 35.1012 38.3607V31.2488H34.3414V38.36C34.3414 39.233 33.6383 39.9361 32.7652 39.9361C31.8922 39.9361 31.191 39.233 31.191 38.36V31.2491H28.9743C31.0193 27.2892 31.2502 24.5708 31.191 21.1852L28.7653 26.1558C28.3824 26.9405 27.4444 27.2633 26.6598 26.8804C25.8752 26.4976 25.5503 25.5575 25.9332 24.773L29.8023 16.8474C30.0717 16.2954 30.6183 15.9798 31.191 15.9684V15.9607L34.3786 15.9588Z" fill="#333333"/>
</svg>
